!!!OTL: Pfaff und Ziegeldeckers Frau
!!!ARE: Europa, Mitteleuropa, Deutschland
!!!SCT: A0473
!!!YEM: Copyright 1995, estate of Helmut Schaffrath.
**kern
*ICvox
*Ivox
*M4/2
*k[b-]
*F:
{2cc
=1
2cc
2cc
2cc
2b-
=2
2a
2a
2g}
{2b-
=3
2a
2f
1g
=4
1f
2r}
{2f
=5
2b-
2b-
2cc
2cc
=6
2dd
2dd
2cc}
{2dd
=7
2cc
2b-
2cc
2g
=8
2a
2dd
2.cc
4b-
=9
2a
2f
1g
=10
1.f}
==
!!!AGN: Romanze, Ballade, Lied
!! Forster II 1540 No. 16.
!!!ONB: ESAC (Essen Associative Code) Database: ALTDEU
!!!AMT: simple quadruple
!!!AIN: vox
!!!EED: Helmut Schaffrath
!!!EEV: 1.0
*-
